X:1
T:The Flower of Magherally
M:3/4
L:1/8
K:G
 E2| c c- c4| c4c-B|A-E E4| z2 A3 B| c4 e2| d4 B2-| c2c/2-d/2c-c B|\
 A6| c c- c4| c4c-B|A-E E4| z2 A3 B| c4 e2| d4 B2| c4- cB| A6| z6|\
 A- c3- d2| e2 e4| e2- d2 c2| d d- d4| d2- c2A-d| d- e3 A2|A-G G2 F2|\
 GA E4| z6| e4 A2| A B3B-A| G4 E2| E2 D2C-D| D2E-G-G G/2A/2| B4 A A-|\
 A6|

